X:155 
T:Monsignor's Blessing (reel) 
B:CRE3.157 (Beannacht an Mhoinsineora)
F:file ID: cre.3/155mons_b
N:"Monsignor" is the late Johnny Cronin (d. NYC 1991)
R:reel
L:1/8
Q:180
M:C
K:D
DE |!segno! F2FD EA,A,2|DEFD EA,A,2|DFEF EDdB|AFEG FDDE|
F3D EA,A,2|DEFD EA,A,2|DFEF EDdB|AFEG FDD||
c|dcdf ecAd|(3Bcd Ad BdAc|dcdf ecAd|(3Bcd ce dcdA|
dcdf ecAd|(3Bcd Ad BdAc|dcdf e2de|cdec dBAG "_DS"||

%%%

